!!!COM: Mozart
!!!OTL: 12 Variations on "Ah Vous dirais-je, Maman" for the Piano
!!!Variation: 6 a2
**function	**harm	**kern	**kern
*	*	*clefF4	*clefG2
*	*	*k[]	*k[]
*M2/4	*M2/4	*M2/4	*M2/4
*C:	*C:	*C:	*C:
=161	=161	=161	=161
2T	C:maj	16CLL	8e 8g 8cc
.	.	16BB	.
.	.	16C	8r
.	.	16BBJJ	.
.	.	16CLL	8e 8g 8cc
.	.	16BB	.
.	.	16C	8r
.	.	16BBJJ	.
=162	=162	=162	=162
2T	C:maj	16CLL	8cc 8ee 8gg
.	.	16BB	.
.	.	16C	8r
.	.	16BBJJ	.
.	.	16CLL	8cc 8ee 8gg
.	.	16D	.
.	.	16E	8r
.	.	16CJJ	.
=163	=163	=163	=163
2T	F:maj	16FLL	8cc 8gg 8aa
.	.	16E	.
.	.	16F	8r
.	.	16EJJ	.
.	.	16FLL	8cc 8ff 8aa
.	.	16G	.
.	.	16A	8r
.	.	16BJJ	.
=164	=164	=164	=164
2T	C:maj	16cLL	8cc 8ff 8gg
.	.	16B	.
.	.	16c	8r
.	.	16BJJ	.
.	.	16cLL	8cc 8ee 8gg
.	.	16d	.
.	.	16e	8r
.	.	16cJJ	.
=165	=165	=165	=165
4T	D:min	16dLL	8a 8ee 8ff
.	.	16c#	.
.	.	16d	8r
.	.	16cJJ	.
4T	G:7	16BLL	8g 8dd 8ff
.	.	16A	.
.	.	16B	8r
.	.	16GJJ	.
=166	=166	=166	=166
4T	C:maj	16cLL	8g 8dd 8ee
.	.	16B	.
.	.	16c	8r
.	.	16BJJ	.
4T	A:min	16ALL	8a 8cc 8ee
.	.	16G#	.
.	.	16A	8r
.	.	16GJJ	.
=167	=167	=167	=167
4P	D:min	16FLL	8f 8a 8dd
.	.	16E	.
.	.	16F	8r
.	.	16DJJ	.
4D	G:7	16GLL	8d 8f 8b
.	.	16F#	.
.	.	16G	8r
.	.	16GGJJ	.
=168	=168	=168	=168
2T	C:maj	16CLL	4e 4g 4cc
.	.	16GG	.
.	.	16EE	.
.	.	16GGJJ	.
.	.	4CC	4r
*-	*-	*-	*-
!!!EMD: Edited in humdrumR 0.7.0.3 on 2024-01-19
